app/assets/images/icons/active/place--pin--line.svg

<svg width="32" height="232" viewBox="0 0 32 232" xmlns="http://www.w3.org/2000/svg" xmlns:sketch="http://www.bohemiancoding.com/sketch/ns"><title>place--pin--line</title><g sketch:type="MSPage" fill="none"><path d="M16.979 152l-1.707-.027-.259.004c0-.024-.075-2.338-2.3-5.433-.848-1.175-1.899-2.225-3.011-3.335-2.669-2.678-5.702-5.71-5.702-10.933 0-6.999 5.16-12.276 11.996-12.276 6.843 0 12.004 5.277 12.004 12.276 0 5.045-3.009 8.115-5.668 10.82-1.126 1.153-2.198 2.243-3.036 3.441-2.183 3.12-2.315 5.442-2.317 5.463zm-.983-29.988c-5.81 0-10.03 4.317-10.03 10.264 0 4.38 2.482 6.865 5.11 9.496 1.117 1.119 2.273 2.272 3.219 3.582.773 1.078 1.325 2.08 1.719 2.968.391-.88.933-1.88 1.684-2.958.935-1.333 2.113-2.528 3.248-3.695 2.617-2.663 5.091-5.184 5.091-9.393 0-5.947-4.221-10.264-10.041-10.264zm.002 15.133c-2.709 0-4.915-2.258-4.915-5.035 0-2.771 2.206-5.024 4.915-5.024 2.713 0 4.919 2.253 4.919 5.024 0 2.777-2.206 5.035-4.919 5.035zm0-8.052c-1.625 0-2.953 1.357-2.953 3.017 0 1.667 1.328 3.021 2.953 3.021 1.629 0 2.956-1.354 2.956-3.021 0-1.66-1.327-3.017-2.956-3.017zm0 0" fill="#206FAC" sketch:type="MSShapeGroup"/><path d="M16.979 112l-1.707-.027-.259.004c0-.024-.075-2.338-2.3-5.433-.848-1.175-1.899-2.225-3.011-3.335-2.669-2.678-5.702-5.71-5.702-10.933 0-6.999 5.16-12.276 11.996-12.276 6.843 0 12.004 5.277 12.004 12.276 0 5.045-3.009 8.115-5.668 10.82-1.126 1.153-2.198 2.243-3.036 3.441-2.183 3.12-2.315 5.442-2.317 5.463zm-.983-29.988c-5.81 0-10.03 4.317-10.03 10.264 0 4.38 2.482 6.865 5.11 9.496 1.117 1.119 2.273 2.272 3.219 3.582.773 1.078 1.325 2.08 1.719 2.968.391-.88.933-1.88 1.684-2.958.935-1.333 2.113-2.528 3.248-3.695 2.617-2.663 5.091-5.184 5.091-9.393 0-5.947-4.221-10.264-10.041-10.264zm.002 15.133c-2.709 0-4.915-2.258-4.915-5.035 0-2.771 2.206-5.024 4.915-5.024 2.713 0 4.919 2.253 4.919 5.024 0 2.777-2.206 5.035-4.919 5.035zm0-8.052c-1.625 0-2.953 1.357-2.953 3.017 0 1.667 1.328 3.021 2.953 3.021 1.629 0 2.956-1.354 2.956-3.021 0-1.66-1.327-3.017-2.956-3.017zm0 0" fill="#fff" sketch:type="MSShapeGroup"/><path d="M16.979 72l-1.707-.027-.259.004c0-.024-.075-2.338-2.3-5.433-.848-1.175-1.899-2.225-3.011-3.335-2.669-2.678-5.702-5.71-5.702-10.933 0-6.999 5.16-12.276 11.996-12.276 6.843 0 12.004 5.277 12.004 12.276 0 5.045-3.009 8.115-5.668 10.82-1.126 1.153-2.198 2.243-3.036 3.441-2.183 3.12-2.315 5.442-2.317 5.463zm-.983-29.988c-5.81 0-10.03 4.317-10.03 10.264 0 4.38 2.482 6.865 5.11 9.496 1.117 1.119 2.273 2.272 3.219 3.582.773 1.078 1.325 2.08 1.719 2.968.391-.88.933-1.88 1.684-2.958.935-1.333 2.113-2.528 3.248-3.695 2.617-2.663 5.091-5.184 5.091-9.393 0-5.947-4.221-10.264-10.041-10.264zm.002 15.133c-2.709 0-4.915-2.258-4.915-5.035 0-2.771 2.206-5.024 4.915-5.024 2.713 0 4.919 2.253 4.919 5.024 0 2.777-2.206 5.035-4.919 5.035zm0-8.052c-1.625 0-2.953 1.357-2.953 3.017 0 1.667 1.328 3.021 2.953 3.021 1.629 0 2.956-1.354 2.956-3.021 0-1.66-1.327-3.017-2.956-3.017zm0 0" fill="#67747C" sketch:type="MSShapeGroup"/><path d="M16.979 32l-1.707-.027-.259.004c0-.024-.075-2.338-2.3-5.433-.848-1.175-1.899-2.225-3.011-3.335-2.669-2.678-5.702-5.71-5.702-10.933 0-6.999 5.16-12.276 11.996-12.276 6.843 0 12.004 5.277 12.004 12.276 0 5.045-3.009 8.115-5.668 10.82-1.126 1.153-2.198 2.243-3.036 3.441-2.183 3.12-2.315 5.442-2.317 5.463zm-.983-29.988c-5.81 0-10.03 4.317-10.03 10.264 0 4.38 2.482 6.865 5.11 9.496 1.117 1.119 2.273 2.272 3.219 3.582.773 1.078 1.325 2.08 1.719 2.968.391-.88.933-1.88 1.684-2.958.935-1.333 2.113-2.528 3.248-3.695 2.617-2.663 5.091-5.184 5.091-9.393 0-5.947-4.221-10.264-10.041-10.264zm.002 15.133c-2.709 0-4.915-2.258-4.915-5.035 0-2.771 2.206-5.024 4.915-5.024 2.713 0 4.919 2.253 4.919 5.024 0 2.777-2.206 5.035-4.919 5.035zm0-8.052c-1.625 0-2.953 1.357-2.953 3.017 0 1.667 1.328 3.021 2.953 3.021 1.629 0 2.956-1.354 2.956-3.021 0-1.66-1.327-3.017-2.956-3.017zm0 0" fill="#3B444F" sketch:type="MSShapeGroup"/></g></svg>

<?xml version="1.0" encoding="UTF-8" standalone="no"?>
<svg width="32px" height="232px" viewBox="0 0 32 232" version="1.1" xmlns="http://www.w3.org/2000/svg" xmlns:xlink="http://www.w3.org/1999/xlink" xmlns:sketch="http://www.bohemiancoding.com/sketch/ns">
    <title>place--pin--line</title>
    <description>Created with Sketch (http://www.bohemiancoding.com/sketch)</description>
    <defs></defs>
    <g id="Points-of-interest" stroke="none" stroke-width="1" fill="none" fill-rule="evenodd" sketch:type="MSPage">
        <path d="M16.979,152 L15.272,151.973 L15.013,151.977 C15.013,151.953 14.938,149.639 12.713,146.544 C11.865,145.369 10.814,144.319 9.702,143.209 C7.033,140.531 4,137.499 4,132.276 C4,125.277 9.16,120 15.996,120 C22.839,120 28,125.277 28,132.276 C28,137.321 24.991,140.391 22.332,143.096 C21.206,144.249 20.134,145.339 19.296,146.537 C17.113,149.657 16.981,151.979 16.979,152 C16.979,152 16.981,151.979 16.979,152 L16.979,152 L16.979,152 Z M15.996,122.012 C10.186,122.012 5.966,126.329 5.966,132.276 C5.966,136.656 8.448,139.141 11.076,141.772 C12.193,142.891 13.349,144.044 14.295,145.354 C15.068,146.432 15.62,147.434 16.014,148.322 C16.405,147.442 16.947,146.442 17.698,145.364 C18.633,144.031 19.811,142.836 20.946,141.669 C23.563,139.006 26.037,136.485 26.037,132.276 C26.037,126.329 21.816,122.012 15.996,122.012 L15.996,122.012 L15.996,122.012 L15.996,122.012 Z M15.998,137.145 C13.289,137.145 11.083,134.887 11.083,132.11 C11.083,129.339 13.289,127.086 15.998,127.086 C18.711,127.086 20.917,129.339 20.917,132.11 C20.917,134.887 18.711,137.145 15.998,137.145 L15.998,137.145 L15.998,137.145 L15.998,137.145 Z M15.998,129.093 C14.373,129.093 13.045,130.45 13.045,132.11 C13.045,133.777 14.373,135.131 15.998,135.131 C17.627,135.131 18.954,133.777 18.954,132.11 C18.954,130.45 17.627,129.093 15.998,129.093 L15.998,129.093 Z M15.998,129.093" id="place--pin--line--lp-blue" fill="#206FAC" sketch:type="MSShapeGroup"></path>
        <path d="M16.979,112 L15.272,111.973 L15.013,111.977 C15.013,111.953 14.938,109.639 12.713,106.544 C11.865,105.369 10.814,104.319 9.702,103.209 C7.033,100.531 4,97.499 4,92.276 C4,85.277 9.16,80 15.996,80 C22.839,80 28,85.277 28,92.276 C28,97.321 24.991,100.391 22.332,103.096 C21.206,104.249 20.134,105.339 19.296,106.537 C17.113,109.657 16.981,111.979 16.979,112 C16.979,112 16.981,111.979 16.979,112 L16.979,112 L16.979,112 Z M15.996,82.012 C10.186,82.012 5.966,86.329 5.966,92.276 C5.966,96.656 8.448,99.141 11.076,101.772 C12.193,102.891 13.349,104.044 14.295,105.354 C15.068,106.432 15.62,107.434 16.014,108.322 C16.405,107.442 16.947,106.442 17.698,105.364 C18.633,104.031 19.811,102.836 20.946,101.669 C23.563,99.006 26.037,96.485 26.037,92.276 C26.037,86.329 21.816,82.012 15.996,82.012 L15.996,82.012 L15.996,82.012 L15.996,82.012 Z M15.998,97.145 C13.289,97.145 11.083,94.887 11.083,92.11 C11.083,89.339 13.289,87.086 15.998,87.086 C18.711,87.086 20.917,89.339 20.917,92.11 C20.917,94.887 18.711,97.145 15.998,97.145 L15.998,97.145 L15.998,97.145 L15.998,97.145 Z M15.998,89.093 C14.373,89.093 13.045,90.45 13.045,92.11 C13.045,93.777 14.373,95.131 15.998,95.131 C17.627,95.131 18.954,93.777 18.954,92.11 C18.954,90.45 17.627,89.093 15.998,89.093 L15.998,89.093 Z M15.998,89.093" id="place--pin--line--white" fill="#FFFFFF" sketch:type="MSShapeGroup"></path>
        <path d="M16.979,72 L15.272,71.973 L15.013,71.977 C15.013,71.953 14.938,69.639 12.713,66.544 C11.865,65.369 10.814,64.319 9.702,63.209 C7.033,60.531 4,57.499 4,52.276 C4,45.277 9.16,40 15.996,40 C22.839,40 28,45.277 28,52.276 C28,57.321 24.991,60.391 22.332,63.096 C21.206,64.249 20.134,65.339 19.296,66.537 C17.113,69.657 16.981,71.979 16.979,72 C16.979,72 16.981,71.979 16.979,72 L16.979,72 L16.979,72 Z M15.996,42.012 C10.186,42.012 5.966,46.329 5.966,52.276 C5.966,56.656 8.448,59.141 11.076,61.772 C12.193,62.891 13.349,64.044 14.295,65.354 C15.068,66.432 15.62,67.434 16.014,68.322 C16.405,67.442 16.947,66.442 17.698,65.364 C18.633,64.031 19.811,62.836 20.946,61.669 C23.563,59.006 26.037,56.485 26.037,52.276 C26.037,46.329 21.816,42.012 15.996,42.012 L15.996,42.012 L15.996,42.012 L15.996,42.012 Z M15.998,57.145 C13.289,57.145 11.083,54.887 11.083,52.11 C11.083,49.339 13.289,47.086 15.998,47.086 C18.711,47.086 20.917,49.339 20.917,52.11 C20.917,54.887 18.711,57.145 15.998,57.145 L15.998,57.145 L15.998,57.145 L15.998,57.145 Z M15.998,49.093 C14.373,49.093 13.045,50.45 13.045,52.11 C13.045,53.777 14.373,55.131 15.998,55.131 C17.627,55.131 18.954,53.777 18.954,52.11 C18.954,50.45 17.627,49.093 15.998,49.093 L15.998,49.093 Z M15.998,49.093" id="place--pin--line--light--grey" fill="#67747C" sketch:type="MSShapeGroup"></path>
        <path d="M16.979,32 L15.272,31.973 L15.013,31.977 C15.013,31.953 14.938,29.639 12.713,26.544 C11.865,25.369 10.814,24.319 9.702,23.209 C7.033,20.531 4,17.499 4,12.276 C4,5.277 9.16,0 15.996,0 C22.839,0 28,5.277 28,12.276 C28,17.321 24.991,20.391 22.332,23.096 C21.206,24.249 20.134,25.339 19.296,26.537 C17.113,29.657 16.981,31.979 16.979,32 C16.979,32 16.981,31.979 16.979,32 L16.979,32 L16.979,32 Z M15.996,2.012 C10.186,2.012 5.966,6.329 5.966,12.276 C5.966,16.656 8.448,19.141 11.076,21.772 C12.193,22.891 13.349,24.044 14.295,25.354 C15.068,26.432 15.62,27.434 16.014,28.322 C16.405,27.442 16.947,26.442 17.698,25.364 C18.633,24.031 19.811,22.836 20.946,21.669 C23.563,19.006 26.037,16.485 26.037,12.276 C26.037,6.329 21.816,2.012 15.996,2.012 L15.996,2.012 L15.996,2.012 L15.996,2.012 Z M15.998,17.145 C13.289,17.145 11.083,14.887 11.083,12.11 C11.083,9.339 13.289,7.086 15.998,7.086 C18.711,7.086 20.917,9.339 20.917,12.11 C20.917,14.887 18.711,17.145 15.998,17.145 L15.998,17.145 L15.998,17.145 L15.998,17.145 Z M15.998,9.093 C14.373,9.093 13.045,10.45 13.045,12.11 C13.045,13.777 14.373,15.131 15.998,15.131 C17.627,15.131 18.954,13.777 18.954,12.11 C18.954,10.45 17.627,9.093 15.998,9.093 L15.998,9.093 Z M15.998,9.093" id="place--pin--line--dark--grey" fill="#3B444F" sketch:type="MSShapeGroup"></path>
    </g>
</svg>
